X:205
T:PLINN 2
Z: Yves BELOTTEAU
M:4/4
L:1/8
Q:1/4=120
K:G
|e/2B/2cAA BcBB|e/2B/2cA3/2 z/2 BcB3/2 z/2 |e/2B/2cAA BcBB|e/2B/2cA3/2 z
/2 BcB3/2 z/2 |
e/2d/2cBe efg3/2 z/2 |g/2f/2efa fge3/2 z/2 |dcBe/2e/2 efg/2g/2g|fefa fge
3/2|
